wilib/img/svg/lupa.svg

<svg xmlns="http://www.w3.org/2000/svg" xmlns:xlink="http://www.w3.org/1999/xlink" preserveAspectRatio="none" width="36" height="55" viewBox="0 0 36 55"><defs><linearGradient id="a" gradientUnits="userSpaceOnUse" x1=".363" y1="-8.65" x2="-10.863" y2="-2.25"><stop offset="0%" stop-color="#666"/><stop offset="24.706%" stop-color="#FFF"/><stop offset="67.843%" stop-color="#999"/><stop offset="98.824%" stop-color="#D5D5D5"/></linearGradient><linearGradient id="b" gradientUnits="userSpaceOnUse" x1=".775" y1="1.3" x2="2.225" y2="3.8"><stop offset="0%" stop-color="#666"/><stop offset="24.706%" stop-color="#FFF"/><stop offset="67.843%" stop-color="#999"/><stop offset="98.824%" stop-color="#D5D5D5"/></linearGradient><linearGradient id="c" gradientUnits="userSpaceOnUse" x1="-24.475" y1="-7.175" x2="12.375" y2="-9.825"><stop offset="0%" stop-color="#960"/><stop offset="24.706%" stop-color="#FFF"/><stop offset="67.843%" stop-color="#C90"/><stop offset="98.824%" stop-color="#FFC"/></linearGradient><linearGradient id="d" gradientUnits="userSpaceOnUse" x1="-21.175" y1="-3.25" x2="10.875" y2="-13.85"><stop offset="0%" stop-color="#666"/><stop offset="24.706%" stop-color="#FFF"/><stop offset="67.843%" stop-color="#999"/><stop offset="98.824%" stop-color="#D5D5D5"/></linearGradient><linearGradient id="e" gradientUnits="userSpaceOnUse" x1="-24.475" y1="-7.175" x2="12.375" y2="-9.825"><stop offset="0%" stop-color="#666"/><stop offset="24.706%" stop-color="#FFF"/><stop offset="67.843%" stop-color="#999"/><stop offset="98.824%" stop-color="#D5D5D5"/></linearGradient><linearGradient id="f" gradientUnits="userSpaceOnUse" x1="1.55" y1="-17.338" x2="6.25" y2="-5.263"><stop offset="0%" stop-color="#666"/><stop offset="24.706%" stop-color="#FFF"/><stop offset="67.843%" stop-color="#999"/><stop offset="98.824%" stop-color="#D5D5D5"/></linearGradient><linearGradient id="g" gradientUnits="userSpaceOnUse" x1="17.788" y1="-10.162" x2="-6.088" y2="-21.538"><stop offset="0%" stop-color="#960"/><stop offset="24.706%" stop-color="#FFF"/><stop offset="67.843%" stop-color="#C90"/><stop offset="98.824%" stop-color="#FFC"/></linearGradient><linearGradient id="h" gradientUnits="userSpaceOnUse" x1="-3.287" y1="-2.075" x2="-5.412" y2="1.475"><stop offset="0%" stop-color="#666"/><stop offset="24.706%" stop-color="#FFF"/><stop offset="67.843%" stop-color="#999"/><stop offset="98.824%" stop-color="#D5D5D5"/></linearGradient><linearGradient id="i" gradientUnits="userSpaceOnUse" x1="17.788" y1="-10.162" x2="-6.088" y2="-21.538"><stop offset="0%" stop-color="#666"/><stop offset="24.706%" stop-color="#FFF"/><stop offset="67.843%" stop-color="#999"/><stop offset="98.824%" stop-color="#D5D5D5"/></linearGradient><linearGradient id="j" gradientUnits="userSpaceOnUse" x1="13.738" y1="-4.675" x2="-3.238" y2="-27.325"><stop offset="0%" stop-color="#666"/><stop offset="24.706%" stop-color="#FFF"/><stop offset="67.843%" stop-color="#999"/><stop offset="98.824%" stop-color="#D5D5D5"/></linearGradient><filter id="l" x="-20%" y="-20%" width="140%" height="140%" color-interpolation-filters="sRGB"><feColorMatrix in="SourceGraphic" values="0 0 0 0 0.8 0 0 0 0 0.8 0 0 0 0 0.8 0 0 0 1 0" result="result1"/></filter><path fill="#FFF" fill-opacity=".29" d="M5.65-4.8Q9.9-8 11.6-13.75q1.7-5.8 0-10.75-1.8-5-6-6.25-3.15-.95-6.35.65-1 .45-2.05 1.3-1.4 1.05-2.55 2.35-2 2.75-3.1 6.4-1.7 5.6-.45 10.5v.05q.15.2.15.4l.4 1q1.85 4.05 5.6 5.2 4.2 1.25 8.4-1.9z" id="k"/><path fill="url(#a)" d="M8.8-3.5q-.3.35-.75.7-2.4 2-6.3 2.65.05.05.05.1.15.25.05.5.55.4.1.75 6.2-.45 9.65-3.35 1-.8 1.6-1.65 1.75-2.5.55-5.45-1.6-4.05-7.5-6.7Q1-18.3-4.95-18.35q-.45.05-.95.05.05.15 0 .35-.15.3-.75.55 5.25.05 9.95 2.15 5.3 2.35 6.7 6 1.2 3.2-1.2 5.75z" id="m"/><g id="n"><path d="M-.85 3.85q-.95-.05-1.3-.15l8.3 14.8q3.25.65 8.45-.6L6.05 3.1q-.15.15-1.05.35-1.1.25-2.8.35-.4.05-.65.05Q.4 3.9-.5 3.9q-.2-.05-.35-.05z"/><path fill="url(#b)" d="M-2.15 3.7q.35.1 1.3.15.15 0 .35.05.9 0 2.05-.05.25 0 .65-.05 1.7-.1 2.8-.35.9-.2 1.05-.35-2.8-.85-2.85-1.8H.6q-.8.1-1.75.15Q-.7 2.5-2.1 3.7h-.05z"/><path fill="url(#c)" d="M12.7-2.6l-.25.05h.25v-.05z"/><path fill="url(#d)" d="M2.7-16.75l.45-.3q-6.75-2-14-1.5-8.05.6-11.95 3.9-4.05 3.3-1.7 7.45 2.45 4.15 9.8 6.65 6.5 2.2 13.55 2Q-.2 1.4.6 1.3h2.6q6-1.05 9.5-3.85h-.25Q8.95-.15 2.45.3q-7.1.5-13.75-1.75-6.6-2.2-8.7-5.9-2.1-3.7 1.45-6.7t10.75-3.5q5.4-.4 10.5.8z"/><path fill="url(#e)" d="M9.9-14.2q-1.55-.95-3.55-1.7-.85-.4-1.8-.7-.7-.25-1.4-.45l-.45.3q1.65.35 3.3.95 2.25.75 3.9 1.6z"/></g><path fill="#FFF" fill-opacity=".29" d="M10.2-14.2q-1.65-.9-3.9-1.6-1.65-.6-3.3-.95-5.1-1.2-10.5-.85-7.2.55-10.75 3.55-3.55 2.95-1.45 6.65 2.1 3.7 8.7 5.95Q-4.35.8 2.8.25 9.25-.2 12.75-2.6q.45-.35.8-.6.1-.1.3-.25h.05q2.7-3 .65-6.55-1.35-2.35-4.35-4.2z" id="o"/><path fill="url(#f)" d="M10.25-29.3q-.3-.45-.2-1 .05-.35.2-.55-.35-.15-.65-.25-4.1-1.15-8.75 1.45-5.2 2.9-8.15 8.75-2.2 4.4-2.15 8.5.1 1.45.35 2.85Q-8.05-4.4-4.05-2.5q-.1-.6.4-1.1.05-.35.25-.7.05-.1.1-.15-2.35-1.85-3.1-5.4-.1-.65-.15-1.2-.5-4.4 1.85-9 2.55-5.4 7.3-7.9 4.1-2.3 7.65-1.35z" id="p"/><g id="q"><path d="M-14.85 23.25L-2.4 2.2q-.3.05-.95-.1-.1.05-.25.05-.6-.2-1.4-.5-.15-.1-.4-.2Q-6.5.95-7.15.3q-.55-.35-.55-.7l-12.6 21.05q3 2.95 5.45 2.6z"/><path fill="url(#g)" d="M-9.5-10.35l-.15-.05v.05h.15z"/><path fill="url(#h)" d="M-2.05-1.55q-.6-.15-1.15-.5-.75-.3-1.75-.55-.5 1.5-2.75 2.2 0 .35.55.7.65.65 1.75 1.15.25.1.4.2.8.3 1.4.5.15 0 .25-.05.65.15.95.1l-.05-.1q-.4-2.05.4-3.65z"/><path fill="url(#i)" d="M3.65-30.2l-.2-.55q-.55.2-1.15.45-.75.3-1.5.65-1.8.85-3.25 2Q-.9-28.7 1-29.4q1.35-.5 2.65-.8z"/><path fill="url(#j)" d="M13.7-30.25Q9-32.5 3.45-30.75l.2.55q4-.8 7.45.85 4.7 2.25 5.8 7.5 1 5.3-2.1 10.6Q11.7-6 6.15-3.9.65-1.75-4-3.95q-4.15-2-5.5-6.4h-.15q1.05 5 4.7 7.75 1 .25 1.75.55.55.35 1.15.5Q2.7.2 8.1-1.85q6.15-2.4 9.7-8.3 3.45-5.85 2.25-11.7-1.15-5.9-6.35-8.4z"/></g><path fill="#FFF" fill-opacity=".29" d="M5.95-3.95q5.55-2.15 8.65-7.4 3.1-5.25 2.1-10.55-1.1-5.3-5.8-7.55-3.45-1.65-7.45-.85-1.3.3-2.65.8-1.9.7-3.45 1.75Q-5.5-25.5-7.5-22.2q-3.05 5.1-2.55 10.2v.05q.1.2.1.4.15.5.25 1.1 1.35 4.4 5.5 6.4 4.65 2.2 10.15.1z" id="r"/></defs><use xlink:href="#k" transform="translate(17.6 27.3) scale(.86606)"/><use filter="url(#l)" xlink:href="#m" transform="matrix(-.527 -.26 -.26 .527 14.742 38.17)"/><use filter="url(#l)" xlink:href="#n" transform="matrix(-.527 -.26 -.26 .527 14.742 38.17)"/><use filter="url(#l)" xlink:href="#o" transform="matrix(-.527 -.26 -.26 .527 14.742 38.17)"/><use xlink:href="#p" transform="translate(17.6 27.3) scale(.86606)"/><g transform="translate(17.6 27.3) scale(.86606)"><use xlink:href="#q"/></g><g transform="translate(17.6 27.3) scale(.86606)"><use xlink:href="#r"/></g></svg>

<svg xmlns="http://www.w3.org/2000/svg" version="1.1" xmlns:xlink="http://www.w3.org/1999/xlink" preserveAspectRatio="none" x="0px" y="0px" width="36px" height="55px" viewBox="0 0 36 55">
<defs>
<linearGradient id="Gradient_1" gradientUnits="userSpaceOnUse" x1="0.3625000000000007" y1="-8.65" x2="-10.8625" y2="-2.25" spreadMethod="pad">
<stop  offset="0%" stop-color="#666666"/>

<stop  offset="24.705882352941178%" stop-color="#FFFFFF"/>

<stop  offset="67.84313725490196%" stop-color="#999999"/>

<stop  offset="98.82352941176471%" stop-color="#D5D5D5"/>
</linearGradient>

<linearGradient id="Gradient_2" gradientUnits="userSpaceOnUse" x1="0.7749999999999999" y1="1.2999999999999998" x2="2.225" y2="3.8" spreadMethod="pad">
<stop  offset="0%" stop-color="#666666"/>

<stop  offset="24.705882352941178%" stop-color="#FFFFFF"/>

<stop  offset="67.84313725490196%" stop-color="#999999"/>

<stop  offset="98.82352941176471%" stop-color="#D5D5D5"/>
</linearGradient>

<linearGradient id="Gradient_3" gradientUnits="userSpaceOnUse" x1="-24.475" y1="-7.175" x2="12.375" y2="-9.825" spreadMethod="pad">
<stop  offset="0%" stop-color="#996600"/>

<stop  offset="24.705882352941178%" stop-color="#FFFFFF"/>

<stop  offset="67.84313725490196%" stop-color="#CC9900"/>

<stop  offset="98.82352941176471%" stop-color="#FFFFCC"/>
</linearGradient>

<linearGradient id="Gradient_4" gradientUnits="userSpaceOnUse" x1="-21.175000000000004" y1="-3.25" x2="10.875000000000002" y2="-13.850000000000001" spreadMethod="pad">
<stop  offset="0%" stop-color="#666666"/>

<stop  offset="24.705882352941178%" stop-color="#FFFFFF"/>

<stop  offset="67.84313725490196%" stop-color="#999999"/>

<stop  offset="98.82352941176471%" stop-color="#D5D5D5"/>
</linearGradient>

<linearGradient id="Gradient_5" gradientUnits="userSpaceOnUse" x1="-24.475" y1="-7.175" x2="12.375" y2="-9.825" spreadMethod="pad">
<stop  offset="0%" stop-color="#666666"/>

<stop  offset="24.705882352941178%" stop-color="#FFFFFF"/>

<stop  offset="67.84313725490196%" stop-color="#999999"/>

<stop  offset="98.82352941176471%" stop-color="#D5D5D5"/>
</linearGradient>

<linearGradient id="Gradient_6" gradientUnits="userSpaceOnUse" x1="1.5499999999999998" y1="-17.337500000000002" x2="6.25" y2="-5.2625" spreadMethod="pad">
<stop  offset="0%" stop-color="#666666"/>

<stop  offset="24.705882352941178%" stop-color="#FFFFFF"/>

<stop  offset="67.84313725490196%" stop-color="#999999"/>

<stop  offset="98.82352941176471%" stop-color="#D5D5D5"/>
</linearGradient>

<linearGradient id="Gradient_7" gradientUnits="userSpaceOnUse" x1="17.7875" y1="-10.1625" x2="-6.0875" y2="-21.5375" spreadMethod="pad">
<stop  offset="0%" stop-color="#996600"/>

<stop  offset="24.705882352941178%" stop-color="#FFFFFF"/>

<stop  offset="67.84313725490196%" stop-color="#CC9900"/>

<stop  offset="98.82352941176471%" stop-color="#FFFFCC"/>
</linearGradient>

<linearGradient id="Gradient_8" gradientUnits="userSpaceOnUse" x1="-3.2874999999999996" y1="-2.075" x2="-5.4125" y2="1.475" spreadMethod="pad">
<stop  offset="0%" stop-color="#666666"/>

<stop  offset="24.705882352941178%" stop-color="#FFFFFF"/>

<stop  offset="67.84313725490196%" stop-color="#999999"/>

<stop  offset="98.82352941176471%" stop-color="#D5D5D5"/>
</linearGradient>

<linearGradient id="Gradient_9" gradientUnits="userSpaceOnUse" x1="17.7875" y1="-10.1625" x2="-6.0875" y2="-21.5375" spreadMethod="pad">
<stop  offset="0%" stop-color="#666666"/>

<stop  offset="24.705882352941178%" stop-color="#FFFFFF"/>

<stop  offset="67.84313725490196%" stop-color="#999999"/>

<stop  offset="98.82352941176471%" stop-color="#D5D5D5"/>
</linearGradient>

<linearGradient id="Gradient_10" gradientUnits="userSpaceOnUse" x1="13.7375" y1="-4.674999999999999" x2="-3.2375000000000007" y2="-27.325000000000003" spreadMethod="pad">
<stop  offset="0%" stop-color="#666666"/>

<stop  offset="24.705882352941178%" stop-color="#FFFFFF"/>

<stop  offset="67.84313725490196%" stop-color="#999999"/>

<stop  offset="98.82352941176471%" stop-color="#D5D5D5"/>
</linearGradient>

<filter id="Filter_1" x="-20%" y="-20%" width="140%" height="140%" color-interpolation-filters="sRGB">
<feColorMatrix in="SourceGraphic" type="matrix" values="0 0 0 0 0.8 0 0 0 0 0.8 0 0 0 0 0.8 0 0 0 1 0" result="result1"/>
</filter>

<g id="Tween_9_0_Layer0_0_MEMBER_0_FILL">
<path fill="#FFFFFF" fill-opacity="0.2901960784313726" stroke="none" d="
M 5.65 -4.8
Q 9.9 -8 11.6 -13.75 13.3 -19.55 11.6 -24.5 9.8 -29.5 5.6 -30.75 2.45 -31.7 -0.75 -30.1 -1.75 -29.65 -2.8 -28.8 -4.2 -27.75 -5.35 -26.45 -7.35 -23.7 -8.45 -20.05 -10.15 -14.45 -8.9 -9.55
L -8.9 -9.5
Q -8.75 -9.3 -8.75 -9.1 -8.55 -8.6 -8.35 -8.1 -6.5 -4.05 -2.75 -2.9 1.45 -1.65 5.65 -4.8 Z"/>
</g>

<g id="sombra_lupa_0_Layer0_0_MEMBER_0_FILL">
<path fill="url(#Gradient_1)" stroke="none" d="
M 8.8 -3.5
Q 8.5 -3.15 8.05 -2.8 5.65 -0.8 1.75 -0.15 1.8 -0.1 1.8 -0.05 1.95 0.2 1.85 0.45 2.4 0.85 1.95 1.2 8.15 0.75 11.6 -2.15 12.6 -2.95 13.2 -3.8 14.95 -6.3 13.75 -9.25 12.15 -13.3 6.25 -15.95 1 -18.3 -4.95 -18.35 -5.4 -18.3 -5.9 -18.3 -5.85 -18.15 -5.9 -17.95 -6.05 -17.65 -6.65 -17.4 -1.4 -17.35 3.3 -15.25 8.6 -12.9 10 -9.25 11.2 -6.05 8.8 -3.5 Z"/>
</g>

<g id="sombra_lupa_0_Layer0_0_MEMBER_1_FILL">
<path fill="#000000" stroke="none" d="
M -0.85 3.85
Q -1.8 3.8 -2.15 3.7
L 6.15 18.5
Q 9.4 19.15 14.6 17.9
L 6.05 3.1
Q 5.9 3.25 5 3.45 3.9 3.7 2.2 3.8 1.8 3.85 1.55 3.85 0.4 3.9 -0.5 3.9 -0.7 3.85 -0.85 3.85 Z"/>

<path fill="url(#Gradient_2)" stroke="none" d="
M -2.15 3.7
Q -1.8 3.8 -0.85 3.85 -0.7 3.85 -0.5 3.9 0.4 3.9 1.55 3.85 1.8 3.85 2.2 3.8 3.9 3.7 5 3.45 5.9 3.25 6.05 3.1 3.25 2.25 3.2 1.3 1.8 1.3 0.6 1.3 -0.2 1.4 -1.15 1.45 -0.7 2.5 -2.1 3.7
L -2.15 3.7 Z"/>

<path fill="url(#Gradient_3)" stroke="none" d="
M 12.7 -2.6
L 12.45 -2.55 12.7 -2.55 12.7 -2.6 Z"/>

<path fill="url(#Gradient_4)" stroke="none" d="
M 2.7 -16.75
L 3.15 -17.05
Q -3.6 -19.05 -10.85 -18.55 -18.9 -17.95 -22.8 -14.65 -26.85 -11.35 -24.5 -7.2 -22.05 -3.05 -14.7 -0.55 -8.2 1.65 -1.15 1.45 -0.2 1.4 0.6 1.3 1.8 1.3 3.2 1.3 9.2 0.25 12.7 -2.55
L 12.45 -2.55
Q 8.95 -0.15 2.45 0.3 -4.65 0.8 -11.3 -1.45 -17.9 -3.65 -20 -7.35 -22.1 -11.05 -18.55 -14.05 -15 -17.05 -7.8 -17.55 -2.4 -17.95 2.7 -16.75 Z"/>

<path fill="url(#Gradient_5)" stroke="none" d="
M 9.9 -14.2
Q 8.35 -15.15 6.35 -15.9 5.5 -16.3 4.55 -16.6 3.85 -16.85 3.15 -17.05
L 2.7 -16.75
Q 4.35 -16.4 6 -15.8 8.25 -15.05 9.9 -14.2 Z"/>
</g>

<g id="sombra_lupa_0_Layer0_0_MEMBER_1_MEMBER_0_FILL">
<path fill="#FFFFFF" fill-opacity="0.2901960784313726" stroke="none" d="
M 10.2 -14.2
Q 8.55 -15.1 6.3 -15.8 4.65 -16.4 3 -16.75 -2.1 -17.95 -7.5 -17.6 -14.7 -17.05 -18.25 -14.05 -21.8 -11.1 -19.7 -7.4 -17.6 -3.7 -11 -1.45 -4.35 0.8 2.8 0.25 9.25 -0.2 12.75 -2.6 13.2 -2.95 13.55 -3.2 13.65 -3.3 13.85 -3.45
L 13.9 -3.45
Q 16.6 -6.45 14.55 -10 13.2 -12.35 10.2 -14.2 Z"/>
</g>

<g id="Tween_9_0_Layer0_0_MEMBER_2_MEMBER_0_FILL">
<path fill="url(#Gradient_6)" stroke="none" d="
M 10.25 -29.3
Q 9.95 -29.75 10.05 -30.3 10.1 -30.65 10.25 -30.85 9.9 -31 9.6 -31.1 5.5 -32.25 0.85 -29.65 -4.35 -26.75 -7.3 -20.9 -9.5 -16.5 -9.45 -12.4 -9.35 -10.95 -9.1 -9.55 -8.05 -4.4 -4.05 -2.5 -4.15 -3.1 -3.65 -3.6 -3.6 -3.95 -3.4 -4.3 -3.35 -4.4 -3.3 -4.45 -5.65 -6.3 -6.4 -9.85 -6.5 -10.5 -6.55 -11.05 -7.05 -15.45 -4.7 -20.05 -2.15 -25.45 2.6 -27.95 6.7 -30.25 10.25 -29.3 Z"/>
</g>

<g id="Tween_9_0_Layer0_0_MEMBER_2_MEMBER_1_FILL">
<path fill="#000000" stroke="none" d="
M -14.85 23.25
L -2.4 2.2
Q -2.7 2.25 -3.35 2.1 -3.45 2.15 -3.6 2.15 -4.2 1.95 -5 1.65 -5.15 1.55 -5.4 1.45 -6.5 0.95 -7.15 0.3 -7.7 -0.05 -7.7 -0.4
L -20.3 20.65
Q -17.3 23.6 -14.85 23.25 Z"/>

<path fill="url(#Gradient_7)" stroke="none" d="
M -9.5 -10.35
L -9.65 -10.4 -9.65 -10.35 -9.5 -10.35 Z"/>

<path fill="url(#Gradient_8)" stroke="none" d="
M -2.05 -1.55
Q -2.65 -1.7 -3.2 -2.05 -3.95 -2.35 -4.95 -2.6 -5.45 -1.1 -7.7 -0.4 -7.7 -0.05 -7.15 0.3 -6.5 0.95 -5.4 1.45 -5.15 1.55 -5 1.65 -4.2 1.95 -3.6 2.15 -3.45 2.15 -3.35 2.1 -2.7 2.25 -2.4 2.2
L -2.45 2.1
Q -2.85 0.05 -2.05 -1.55 Z"/>

<path fill="url(#Gradient_9)" stroke="none" d="
M 3.65 -30.2
L 3.45 -30.75
Q 2.9 -30.55 2.3 -30.3 1.55 -30 0.8 -29.65 -1 -28.8 -2.45 -27.65 -0.9 -28.7 1 -29.4 2.35 -29.9 3.65 -30.2 Z"/>

<path fill="url(#Gradient_10)" stroke="none" d="
M 13.7 -30.25
Q 9 -32.5 3.45 -30.75
L 3.65 -30.2
Q 7.65 -31 11.1 -29.35 15.8 -27.1 16.9 -21.85 17.9 -16.55 14.8 -11.25 11.7 -6 6.15 -3.9 0.65 -1.75 -4 -3.95 -8.15 -5.95 -9.5 -10.35
L -9.65 -10.35
Q -8.6 -5.35 -4.95 -2.6 -3.95 -2.35 -3.2 -2.05 -2.65 -1.7 -2.05 -1.55 2.7 0.2 8.1 -1.85 14.25 -4.25 17.8 -10.15 21.25 -16 20.05 -21.85 18.9 -27.75 13.7 -30.25 Z"/>
</g>

<g id="Tween_9_0_Layer0_0_MEMBER_2_MEMBER_1_MEMBER_0_FILL">
<path fill="#FFFFFF" fill-opacity="0.2901960784313726" stroke="none" d="
M 5.95 -3.95
Q 11.5 -6.1 14.6 -11.35 17.7 -16.6 16.7 -21.9 15.6 -27.2 10.9 -29.45 7.45 -31.1 3.45 -30.3 2.15 -30 0.8 -29.5 -1.1 -28.8 -2.65 -27.75 -5.5 -25.5 -7.5 -22.2 -10.55 -17.1 -10.05 -12
L -10.05 -11.95
Q -9.95 -11.75 -9.95 -11.55 -9.8 -11.05 -9.7 -10.45 -8.35 -6.05 -4.2 -4.05 0.45 -1.85 5.95 -3.95 Z"/>
</g>
</defs>

<g id="seta_01" transform="matrix( 0.866058349609375, 0, 0, 0.866058349609375, 17.6,27.3) ">
<g transform="matrix( 1, 0, 0, 1, 0,0) ">
<g transform="matrix( 1, 0, 0, 1, 0,0) ">
<use xlink:href="#Tween_9_0_Layer0_0_MEMBER_0_FILL"/>
</g>

<g transform="matrix( -0.6083984375, -0.3002166748046875, -0.3002166748046875, 0.6083984375, -3.3,12.55) ">
<g transform="matrix( 1, 0, 0, 1, 0,0) ">
<use filter="url(#Filter_1)" xlink:href="#sombra_lupa_0_Layer0_0_MEMBER_0_FILL"/>
</g>

<g transform="matrix( 1, 0, 0, 1, 0,0) ">
<use filter="url(#Filter_1)" xlink:href="#sombra_lupa_0_Layer0_0_MEMBER_1_FILL"/>
</g>

<g transform="matrix( 1, 0, 0, 1, 0,0) ">
<use filter="url(#Filter_1)" xlink:href="#sombra_lupa_0_Layer0_0_MEMBER_1_MEMBER_0_FILL"/>
</g>
</g>

<g transform="matrix( 1, 0, 0, 1, 0,0) ">
<use xlink:href="#Tween_9_0_Layer0_0_MEMBER_2_MEMBER_0_FILL"/>
</g>

<g transform="matrix( 1, 0, 0, 1, 0,0) ">
<use xlink:href="#Tween_9_0_Layer0_0_MEMBER_2_MEMBER_1_FILL"/>
</g>

<g transform="matrix( 1, 0, 0, 1, 0,0) ">
<use xlink:href="#Tween_9_0_Layer0_0_MEMBER_2_MEMBER_1_MEMBER_0_FILL"/>
</g>
</g>
</g>
</svg>
